X:93
T:The Raspberry Bush
C:Robin Beech
R:jig
M:6/8
L:1/8
K:D
AGF AAG | AGF d2B | AGF AAG | E2d cBB | AGF AAG | AGF d2f |
gfe dcA | dec d2B :: dcA dcG | dcA dcG | dfe dfa |
gfg e2c | edB ecA | edB ecA | a2g fdB |1 e2d cBA :|2 Adc d3 |]
